X: 1051
T: Oranges and Lemons
B: kids songs
M:4/4
L:1/8
Q: 1/4=100
K:D
V:1 
A2 | "A"d2e2 afed | "G"e3d "A7"B3A | "D"d3f afed | "A7"e3f "D"d2 :: \
ga | "G"b6 fg | "D"a6 fe | "D"d3f afed | "G"e3d "A7"B3A | \
"Bm"d3f "Em"afed | "A7"e3f "D"d2ga | "G"b6 fg | "F#m"a6 fe | \
"Bm"d3 f afed | "E7"e3d "A7"B3A | "D"d3f afed | "A7"e3f "D"d4 :|
% abcbook-tune_id 62829c772c26c0fcae10f6b9


% abcbook-boost 0
% abcbook-tablature 
% abcbook-transpose 
% abcbook-lastupdated 1653910500571
% abcbook-soundfonts 
% abcbook-repeats 1
% Titles One title
% Transcriptions Only 1 transcription
% Movement Has lots of stepwise movement
% Movement Has some stepwise movement
% Movement Never repeats a note
% Mode major
% Key D
% Time_signature 4/4
% Has_accompaniment_chords Has chords

